icon-themes/elementary_svg/cmd/sc_intersect.svg

<svg height="16" width="16" xmlns="http://www.w3.org/2000/svg" xmlns:xlink="http://www.w3.org/1999/xlink"><linearGradient id="a" gradientUnits="userSpaceOnUse" x1="7.729" x2="7.932" y1="-.136" y2="15.458"><stop offset="0" stop-color="#64baff"/><stop offset="1" stop-color="#3689e6"/></linearGradient><path d="m10 .5c-2.867 0-5.216 2.198-5.47 5h5.97v5.97c2.802-.254 5-2.603 5-5.47 0-3.036-2.464-5.5-5.5-5.5zm.5 10.97c-.165.014-.33.03-.5.03-3.036 0-5.5-2.464-5.5-5.5 0-.17.016-.335.03-.5h-4.03v10h10z" fill="none" opacity=".5" stroke="#002e99" stroke-linejoin="round" stroke-miterlimit="0"/><path d="m4.53 5.5-.03.5c0 3.036 2.464 5.5 5.5 5.5l.5-.03v-.386h.008v-3.39h-.008v-2.194h-4.127z" fill="url(#a)" stroke="#002e99" stroke-linejoin="round" stroke-miterlimit="0"/><path d="m4.943 6a5.06 5.06 0 0 0 4.524 4.988c.01.002.02.012.033.012.006 0 .01-.006.016-.006a5.06 5.06 0 0 0 .484.03v-4.207c0-.07-.015-.135-.025-.2.01-.04.025-.076.025-.118 0-.253-.2-.452-.46-.486-.012-.001-.024-.013-.04-.013-.004 0-.008.004-.012.004-.007 0-.012-.004-.02-.004h-4.524zm1.143 1h2.914v2.887a4.053 4.053 0 0 1 -2.914-2.887z" fill="#fff" opacity=".3"/></svg>

<svg xmlns="http://www.w3.org/2000/svg" xmlns:xlink="http://www.w3.org/1999/xlink" width="16" height="16"><defs><linearGradient id="a"><stop offset="0" stop-color="#64baff"/><stop offset="1" stop-color="#3689e6"/></linearGradient><linearGradient xlink:href="#a" id="b" gradientUnits="userSpaceOnUse" x1="7.729" y1="-.136" x2="7.932" y2="15.458"/></defs><path d="M10 .5c-2.867 0-5.216 2.198-5.47 5h5.97v5.97c2.802-.254 5-2.603 5-5.47 0-3.036-2.464-5.5-5.5-5.5zm.5 10.97c-.165.014-.33.03-.5.03-3.036 0-5.5-2.464-5.5-5.5 0-.17.016-.335.03-.5H.5v10h10v-4.03z" fill="none" stroke="#002e99" stroke-linejoin="round" stroke-miterlimit="0" opacity=".5"/><path d="M4.53 5.5L4.5 6c0 3.036 2.464 5.5 5.5 5.5l.5-.03v-.386h.008v-3.39H10.5V5.5H6.373z" fill="url(#b)" stroke="#002e99" stroke-linejoin="round" stroke-miterlimit="0"/><path d="M4.943 6a5.06 5.06 0 0 0 4.524 4.988c.01.002.02.012.033.012.006 0 .01-.006.016-.006a5.06 5.06 0 0 0 .484.03V6.817c0-.07-.015-.135-.025-.2.01-.04.025-.076.025-.118 0-.253-.2-.452-.46-.486C9.528 6.012 9.516 6 9.5 6c-.004 0-.008.004-.012.004-.007 0-.012-.004-.02-.004H4.944zm1.143 1H9v2.887A4.053 4.053 0 0 1 6.086 7z" opacity=".3" fill="#fff"/></svg>
